X:2550
T:Cantar de Ronda (CT 104)
R:Ronda
C:Tradicional
S:Música Tradicional Asturiana, (C) Tello & Tito. Asturies, 2001.
S:http://pagina.de/MusTradAst <telloytito@asturies.org>
N:Cancion de Ronda, dictada por Fernando Menéndez Álvarez, de treinta y cinco años, de Llanuces, ayuntamiento de Quirós.
O:Llanuces (Quirós)
A:Asturies
Z:Cancioneru de Torner 104
M:3/8
L:1/8
Q:1/4=120
W:Dices que me quieres mucho, ¡Olé!
W:¿Con qué te lo pagaré?
W:Con quererte yo otro tanto
W:¿Ya nada te deberé?
K:C
|ddd|efe|(d3/2(3c/4B/4A/4)B|(d3/2(3c/4B/4A/4)B-|B2 z|
Bcd|cBc|(A/G/4A/4)G2-|G2 z :||


